X:2276
T:Svingedans
T:(FMK M76 bild 4)
R:Svingedans
S:Efter Nils Tufvesson, Cimbris
O:Skåne
B:FMK M76
Z:ABC-transkribering av Åke Persson
M:3/4
L:1/8
Q:1/4=108
%%printtempo 0
%%MIDI ratio 2 1
K:G
D2 |: GA B2B2 | A^GABA2 | AB c2cA |1 d2dB G2 :|2 d2dB G c |] 
 |: e2cBce | d2BGBd | e2cBce | d2BGBd | edcBce | dF G2G2 :|
(:musicend:)
I originaret upptecknad i 3/8


(:music:)
